;FLAVOR:Marlin
;TIME:3405
;Filament used: 0m
;Layer height: 0.15
;Extruders used: T1 0.4
;BCN3D_FIXES
;Generated with Cura_SteamEngine 2.1.5
T1
M190 S65
M104 T1 S190
M109 T1 S190
M82 ;absolute extrusion mode
;Sigma ProGen 2.2.0 (Build 14CJ1301)
;BCN3D Fixes applied
; - Fix Acceleration/Jerk commands
; - Prevent Filament Grinding
; - Z Hop At Layer Change

G21          ;metric values
G90          ;absolute positioning
M204 S2000 ;set default acceleration
M205 X15 Y15 ;set default jerk
M107         ;start with the fan off
G28 X0 Y0    ;move X/Y to min endstops
G28 Z0       ;move Z to min endstops
G1 Z5 F200   ;safety Z axis movement
T1           ;switch to the right extruder
G92 E0       ;zero the extruded length
G1 F47.4 E15 ;extrude 15mm of feed stock
G92 E0       
G4 P2000     ;stabilize hotend's pressure
T0           ;switch to the left extruder
G92 E0       ;zero the extruded length

G92 E0
G4 P2000     ;stabilize hotend's pressure


G4 P1
G4 P2
G4 P3

;LAYER_COUNT:52
;LAYER:0
G1 F2100 E-6.5
G92 E0
T1
G92 E0
G91
G1 F12000 Z2
G90
G92 E0
G1 F600 E6.5
G92 E0
G1 F47.4 E2.5 ;defaultpurge
G92 E0
G1 F2400 E-6.5
G92 E0
G4 P2000
;G92 E0
;G1 F600 E6.5
;M800 F47.4 S0.0002 E20.0 P0.0 ;smartpurge
;G92 E0
;G1 F2400 E-6.5
;G92 E0
;G4 P2000

M109 S190
M107
M204 S878
M205 X11.25 Y11.25
G0 F3600 X124.528 Y172.88 Z0.2
M204 S1170
;TYPE:SKIRT
G1 F900 X124.106 Y173.45 E0.01067
G1 X123.953 Y173.624 E0.01416
G1 X123.541 Y174.032 E0.02288
G1 X123.078 Y174.379 E0.03159
G1 X122.57 Y174.659 E0.04032
G1 X122.03 Y174.867 E0.04903
G1 X121.465 Y174.998 E0.05776
G1 X120.795 Y175.051 E0.06787
G1 X89.138 Y175.021 E0.54426
G1 X88.56 Y174.98 E0.55298
G1 X87.993 Y174.861 E0.5617
G1 X87.448 Y174.664 E0.57042
G1 X86.936 Y174.395 E0.57912
G1 X86.465 Y174.057 E0.58785
G1 X86.045 Y173.658 E0.59656
G1 X85.85 Y173.43 E0.60108
G1 X85.766 Y173.324 E0.60311
G1 X85.439 Y172.846 E0.61183
G1 X85.18 Y172.327 E0.62056
G1 X84.995 Y171.778 E0.62928
G1 X84.887 Y171.209 E0.63799
G1 X84.858 Y170.715 E0.64544
G1 X84.856 Y126.287 E1.31401
G1 X84.896 Y125.709 E1.32273
G1 X85.015 Y125.142 E1.33145
G1 X85.211 Y124.597 E1.34016
G1 X85.48 Y124.084 E1.34888
G1 X85.817 Y123.613 E1.3576
G1 X86.416 Y123.02 E1.37028
G1 X86.588 Y122.881 E1.37361
G1 X87.063 Y122.549 E1.38233
G1 X87.579 Y122.285 E1.39105
G1 X88.126 Y122.095 E1.39976
G1 X88.694 Y121.982 E1.40848
G1 X89.24 Y121.948 E1.41671
G1 X99.738 Y121.978 E1.57469
G1 X99.882 Y121.981 E1.57686
G1 X103.704 Y122.123 E1.63441
G1 X109.183 Y122.049 E1.71687
G1 X111.186 Y121.947 E1.74705
G1 X111.401 Y121.942 E1.75029
G1 X120.77 Y121.945 E1.89128
G1 X121.348 Y121.985 E1.9
G1 X121.915 Y122.104 E1.90871
G1 X122.46 Y122.301 E1.91744
G1 X122.973 Y122.57 E1.92615
G1 X123.444 Y122.907 E1.93487
G1 X123.851 Y123.292 E1.9433
G1 X124.038 Y123.494 E1.94744
G1 X124.401 Y123.945 E1.95615
G1 X124.699 Y124.442 E1.96487
G1 X124.926 Y124.975 E1.97359
G1 X125.077 Y125.534 E1.9823
G1 X125.156 Y126.347 E1.9946
G1 X125.152 Y170.677 E2.66169
G1 X125.112 Y171.255 E2.67041
G1 X124.993 Y171.822 E2.67913
G1 X124.812 Y172.324 E2.68716
G0 F810 X124.797 Y172.367
G0 X124.528 Y172.88
M204 S878
G0 F3600 X124.05 Y172.737
M204 S1170
G1 F1050 E2.69657
G1 F900 X123.746 Y173.133 E2.70408
G1 X123.593 Y173.307 E2.70757
G1 X123.204 Y173.689 E2.71577
G1 X122.763 Y174.01 E2.72398
G1 X122.28 Y174.263 E2.73218
G1 X121.765 Y174.443 E2.74039
G1 X121.23 Y174.546 E2.74859
G1 X120.795 Y174.571 E2.75515
G1 X89.138 Y174.541 E3.23154
G1 X88.595 Y174.501 E3.23973
G1 X88.063 Y174.381 E3.24794
G1 X87.554 Y174.185 E3.25615
G1 X87.08 Y173.917 E3.26434
G1 X86.649 Y173.582 E3.27256
G1 X86.226 Y173.131 E3.28186
G1 X86.142 Y173.025 E3.2839
G1 X85.836 Y172.574 E3.2921
G1 X85.599 Y172.084 E3.30029
G1 X85.436 Y171.563 E3.3085
G1 X85.351 Y171.025 E3.3167
G1 X85.338 Y170.715 E3.32137
G1 X85.336 Y126.287 E3.98994
G1 X85.376 Y125.743 E3.99815
G1 X85.495 Y125.211 E4.00635
G1 X85.69 Y124.703 E4.01454
G1 X85.958 Y124.228 E4.02275
G1 X86.292 Y123.797 E4.03095
G1 X86.718 Y123.394 E4.03978
G1 X86.89 Y123.255 E4.04311
G1 X87.338 Y122.944 E4.05131
G1 X87.826 Y122.702 E4.05951
G1 X88.345 Y122.534 E4.06772
G1 X88.883 Y122.444 E4.07593
G1 X89.239 Y122.428 E4.08129
G1 X99.737 Y122.458 E4.23927
G1 X99.864 Y122.461 E4.24118
G1 X103.693 Y122.603 E4.29884
G1 X109.214 Y122.529 E4.38193
G1 X111.211 Y122.427 E4.41202
G1 X111.401 Y122.422 E4.41488
G1 X120.77 Y122.425 E4.55587
G1 X121.314 Y122.465 E4.56408
G1 X121.846 Y122.584 E4.57228
G1 X122.355 Y122.78 E4.58049
G1 X122.83 Y123.048 E4.5887
G1 X123.26 Y123.382 E4.59689
G1 X123.499 Y123.618 E4.60195
G1 X123.686 Y123.82 E4.60609
G1 X124.026 Y124.246 E4.61429
G1 X124.3 Y124.717 E4.62249
G1 X124.502 Y125.223 E4.63069
G1 X124.628 Y125.754 E4.6389
G1 X124.676 Y126.347 E4.64786
G1 X124.672 Y170.677 E5.31495
G1 X124.632 Y171.221 E5.32316
G1 X124.513 Y171.753 E5.33137
G1 X124.346 Y172.187 E5.33836
G0 F810 X124.317 Y172.262
G0 X124.05 Y172.737
M204 S878
G0 F3600 X123.572 Y172.583
M204 S1170
G1 F1050 E5.34777
G1 F900 X123.385 Y172.816 E5.35227
G1 X123.232 Y172.99 E5.35575
G1 X122.867 Y173.345 E5.36341
G1 X122.451 Y173.638 E5.37107
G1 X121.995 Y173.862 E5.37872
G1 X121.509 Y174.012 E5.38637
G1 X120.796 Y174.091 E5.39717
G1 X89.139 Y174.061 E5.87355
G1 X88.632 Y174.021 E5.88121
G1 X88.137 Y173.901 E5.88887
G1 X87.668 Y173.706 E5.89652
G1 X87.234 Y173.44 E5.90418
G1 X86.848 Y173.109 E5.91183
G1 X86.603 Y172.833 E5.91738
G1 X86.519 Y172.727 E5.91942
G1 X86.235 Y172.305 E5.92707
G1 X86.021 Y171.844 E5.93472
G1 X85.882 Y171.354 E5.94238
G1 X85.818 Y170.715 E5.95205
G1 X85.816 Y126.287 E6.62062
G1 X85.856 Y125.78 E6.62827
G1 X85.975 Y125.285 E6.63594
G1 X86.169 Y124.815 E6.64359
G1 X86.435 Y124.382 E6.65123
G1 X86.766 Y123.995 E6.6589
G1 X87.02 Y123.767 E6.66403
G1 X87.192 Y123.628 E6.66736
G1 X87.611 Y123.34 E6.67501
G1 X88.07 Y123.122 E6.68266
G1 X88.558 Y122.978 E6.69032
G1 X89.237 Y122.908 E6.70059
G1 X99.735 Y122.938 E6.85857
G1 X99.846 Y122.94 E6.86024
G1 X103.701 Y123.083 E6.91829
G1 X109.218 Y123.009 E7.00132
G1 X111.235 Y122.906 E7.03171
G1 X111.401 Y122.902 E7.03421
G1 X120.77 Y122.905 E7.1752
G1 X121.277 Y122.945 E7.18285
G1 X121.772 Y123.064 E7.19051
G1 X122.242 Y123.259 E7.19817
G1 X122.675 Y123.525 E7.20582
G1 X123.147 Y123.944 E7.21532
G1 X123.334 Y124.146 E7.21946
G1 X123.649 Y124.545 E7.22711
G1 X123.898 Y124.989 E7.23477
G1 X124.074 Y125.466 E7.24242
G1 X124.173 Y125.965 E7.25008
G1 X124.196 Y126.347 E7.25583
G1 X124.192 Y170.677 E7.92293
G1 X124.152 Y171.184 E7.93059
G1 X124.033 Y171.679 E7.93825
G1 X123.882 Y172.042 E7.94416
G0 F810 X123.838 Y172.149
G0 X123.572 Y172.583
M204 S878
G1 F2100 E1.44416
G0 F3600 X120.258 Y170.157
G0 X99.943 Y157.652
G0 X99.872 Y157.173
G0 X100.421 Y157.174
M204 S1170
;TYPE:WALL-OUTER
G1 F1050 E7.95357
G1 F900 X100.661 Y157.174 E7.95718
G1 X109.511 Y157.17 E8.09036
G1 X109.611 Y157.153 E8.09189
G1 X109.747 Y157.09 E8.09414
G1 X109.86 Y156.958 E8.09676
G1 X109.902 Y156.83 E8.09878
G1 X109.906 Y127.668 E8.53763
G1 X109.92 Y127.586 E8.53888
G1 X111.352 Y126.384 E8.56701
G1 X111.373 Y126.374 E8.56736
G1 X120.487 Y126.375 E8.70451
G1 X120.727 Y126.375 E8.70813
G1 X120.727 Y126.615 E8.71046
G1 X120.722 Y170.621 E9.37268
G1 X89.517 Y170.627 E9.84227
G1 X89.277 Y170.627 E9.84588
G1 X89.277 Y170.387 E9.84822
G1 X89.277 Y126.377 E10.5105
G1 X98.901 Y126.376 E10.65533
G1 X99.605 Y126.96 E10.66909
G1 X100.411 Y127.613 E10.6847
G1 X100.422 Y127.681 E10.68574
G1 X100.421 Y156.934 E11.12595
G1 X100.421 Y157.174 E11.12829
M204 S878
G0 F3600 X100.621 Y157.174
G0 X100.181 Y157.624
M204 S1170
;TYPE:WALL-INNER
G1 F900 X109.549 Y157.62 E11.25164
G1 X109.746 Y157.587 E11.25427
G1 X110.025 Y157.457 E11.25832
G1 X110.26 Y157.183 E11.26307
G1 X110.352 Y156.902 E11.26697
G1 X110.356 Y127.808 E11.65006
G1 X111.528 Y126.824 E11.67021
G1 X111.681 Y126.824 E11.67222
G1 X120.277 Y126.825 E11.78541
G1 X120.277 Y127.245 E11.79094
G1 X120.272 Y170.171 E12.35617
G1 X90.148 Y170.176 E12.75282
G1 X89.727 Y170.177 E12.75836
G1 X89.727 Y169.757 E12.76389
G1 X89.727 Y127.247 E13.32364
G1 X89.727 Y126.827 E13.32917
G1 X98.587 Y126.827 E13.44583
G1 X98.739 Y126.826 E13.44783
G1 X98.856 Y126.923 E13.44984
G1 X99.32 Y127.308 E13.45777
G1 X99.972 Y127.837 E13.46883
G1 X99.972 Y128.037 E13.47146
G1 X99.971 Y157.414 E13.85828
G1 X99.971 Y157.624 E13.86105
G1 X100.181 Y157.624 E13.86284
M204 S878
G0 F3600 X99.971 Y158.044
M204 S1170
G1 F900 X109.584 Y158.04 E13.98942
G1 X109.872 Y157.992 E13.99326
G1 X110.285 Y157.799 E13.99926
G1 X110.343 Y157.731 E14.00044
G1 X110.578 Y157.457 E14.00519
G1 X110.633 Y157.393 E14.0063
G1 X110.658 Y157.315 E14.00738
G1 X110.75 Y157.034 E14.01128
G1 X110.772 Y156.969 E14.01218
G1 X110.776 Y128.004 E14.39357
G1 X111.681 Y127.244 E14.40913
G1 X111.834 Y127.244 E14.41115
G1 X119.857 Y127.245 E14.51679
G1 X119.857 Y127.665 E14.52232
G1 X119.852 Y169.751 E15.07648
G1 X90.568 Y169.756 E15.46208
G1 X90.147 Y169.757 E15.46762
G1 X90.147 Y169.337 E15.47315
G1 X90.147 Y127.667 E16.02184
G1 X90.147 Y127.247 E16.02737
G1 X98.437 Y127.247 E16.13652
G1 X98.588 Y127.246 E16.13851
G1 X98.704 Y127.341 E16.14049
G1 X99.056 Y127.63 E16.14648
G1 X99.398 Y127.911 E16.15231
G1 X99.552 Y128.037 E16.15493
G1 X99.552 Y128.236 E16.15755
G1 X99.552 Y157.623 E16.5445
G1 X99.551 Y157.75 E16.54617
G0 F810 X99.551 Y158.044
G0 X99.971 Y158.044
M204 S878
G0 F3600 X99.551 Y158.464
M204 S1170
G1 F1050 E16.55558
G1 F900 X109.619 Y158.46 E16.68815
G1 X109.998 Y158.397 E16.6932
G1 X110.545 Y158.141 E16.70116
G1 X110.603 Y158.073 E16.70233
G1 X110.951 Y157.667 E16.70937
G1 X111.006 Y157.603 E16.71049
G1 X111.031 Y157.525 E16.71156
G1 X111.171 Y157.1 E16.71746
G1 X111.192 Y157.036 E16.71834
G1 X111.196 Y128.2 E17.09804
G1 X111.834 Y127.664 E17.10901
G1 X119.437 Y127.665 E17.20912
G1 X119.432 Y169.331 E17.75775
G1 X90.777 Y169.337 E18.13507
G1 X90.567 Y169.337 E18.13783
G1 X90.567 Y169.127 E18.13962
G1 X90.567 Y127.667 E18.68554
G1 X98.438 Y127.666 E18.78918
G1 X99.132 Y128.236 E18.80101
G1 X99.132 Y158.043 E19.19349
G1 X99.131 Y158.17 E19.19516
G0 F810 X99.131 Y158.464
G0 X99.551 Y158.464
M204 S878
G0 F3600 X98.691 Y158.904
M204 S1170
;TYPE:SKIN
G1 F1050 E19.20456
G1 F900 X109.655 Y158.9 E19.36955
G1 X110.13 Y158.821 E19.3768
G1 X110.817 Y158.499 E19.38822
G1 X111.397 Y157.823 E19.40162
G1 X111.632 Y157.107 E19.41296
G1 X111.636 Y128.405 E19.84488
G1 X111.995 Y128.104 E19.85193
G1 X118.997 Y128.105 E19.9573
G1 X118.992 Y168.891 E20.57107
G1 X91.007 Y168.897 E20.9922
G1 X91.007 Y128.107 E21.60602
G1 X98.28 Y128.106 E21.71547
G1 X98.692 Y128.444 E21.72349
G1 X98.691 Y158.279 E22.17246
G0 F810 X98.691 Y158.904
M204 S878
G0 F3600 X91.393 Y168.509
M204 S1170
G1 F1050 E22.18187
G1 F900 X91.801 Y168.508 E22.18801
G1 X92.48 Y168.508 E22.19822
G1 X91.393 Y167.421 E22.22136
G1 X91.393 Y166.742 E22.23157
G1 X93.159 Y168.508 E22.26916
G1 X93.838 Y168.508 E22.27938
G1 X91.393 Y166.064 E22.3314
G1 X91.393 Y165.385 E22.34162
G1 X94.516 Y168.507 E22.40807
G1 X95.194 Y168.507 E22.41827
G1 X91.393 Y164.706 E22.49916
G1 X91.393 Y164.027 E22.50938
G1 X95.873 Y168.507 E22.60472
G1 X96.552 Y168.507 E22.61494
G1 X91.393 Y163.348 E22.72473
G1 X91.393 Y162.669 E22.73495
G1 X97.231 Y168.507 E22.85919
G1 X97.909 Y168.507 E22.8694
G1 X91.393 Y161.991 E23.00807
G1 X91.393 Y161.312 E23.01829
G1 X98.588 Y168.507 E23.17141
G1 X99.267 Y168.507 E23.18163
G1 X91.393 Y160.633 E23.3492
G1 X91.393 Y159.954 E23.35942
G1 X99.946 Y168.507 E23.54144
G1 X100.624 Y168.506 E23.55164
G1 X91.393 Y159.275 E23.74809
G1 X91.393 Y158.596 E23.75831
G1 X101.302 Y168.506 E23.9692
G1 X101.981 Y168.506 E23.97942
G1 X91.393 Y157.918 E24.20475
G1 X91.393 Y157.239 E24.21497
G1 X102.66 Y168.506 E24.45475
G1 X103.339 Y168.506 E24.46497
G1 X91.393 Y156.56 E24.7192
G1 X91.393 Y155.881 E24.72942
G1 X104.017 Y168.505 E24.99808
G1 X104.696 Y168.505 E25.0083
G1 X91.393 Y155.202 E25.29141
G1 X91.393 Y154.524 E25.30161
G1 X105.375 Y168.505 E25.59916
G1 X106.053 Y168.505 E25.60936
G1 X91.393 Y153.845 E25.92135
G1 X91.393 Y153.166 E25.93157
G1 X106.732 Y168.504 E26.258
G1 X107.41 Y168.504 E26.2682
G1 X91.393 Y152.487 E26.60907
G1 X91.393 Y151.808 E26.61929
G1 X98.304 Y158.72 E26.76638
G1 X98.304 Y159.29 E26.77496
M204 S878
G0 F3600 X98.304 Y158.72
M204 S1170
G1 F900 X98.304 Y158.041 E26.78517
G1 X91.393 Y151.129 E26.93226
G1 X91.393 Y150.451 E26.94247
G1 X98.304 Y157.362 E27.08954
G1 X98.304 Y156.683 E27.09976
G1 X91.393 Y149.772 E27.24684
G1 X91.393 Y149.093 E27.25706
G1 X98.304 Y156.004 E27.40413
G1 X98.304 Y155.325 E27.41435
G1 X91.393 Y148.414 E27.56143
G1 X91.393 Y147.735 E27.57165
G1 X98.304 Y154.647 E27.71874
G1 X98.304 Y153.968 E27.72896
G1 X91.393 Y147.056 E27.87604
G1 X91.393 Y146.378 E27.88625
G1 X98.304 Y153.289 E28.03332
G1 X98.304 Y152.61 E28.04354
G1 X91.393 Y145.699 E28.19062
G1 X91.393 Y145.02 E28.20084
G1 X98.304 Y151.931 E28.34792
G1 X98.304 Y151.252 E28.35813
G1 X91.393 Y144.341 E28.50521
G1 X91.393 Y143.662 E28.51543
G1 X98.304 Y150.574 E28.66252
G1 X98.304 Y149.895 E28.67274
G1 X91.393 Y142.984 E28.81981
G1 X91.393 Y142.305 E28.83003
G1 X98.304 Y149.216 E28.97711
G1 X98.304 Y148.537 E28.98733
G1 X91.393 Y141.626 E29.13441
G1 X91.393 Y140.947 E29.14462
G1 X98.304 Y147.858 E29.2917
G1 X98.304 Y147.18 E29.3019
G1 X91.393 Y140.268 E29.44899
G1 X91.393 Y139.589 E29.45921
G1 X98.304 Y146.501 E29.6063
G1 X98.304 Y145.822 E29.61652
G1 X91.393 Y138.911 E29.7636
G1 X91.393 Y138.232 E29.77381
G1 X98.304 Y145.143 E29.92089
G1 X98.304 Y144.464 E29.93111
G1 X91.393 Y137.553 E30.07819
G1 X91.393 Y136.874 E30.0884
G1 X98.305 Y143.786 E30.2355
G1 X98.305 Y143.107 E30.24572
G1 X91.393 Y136.195 E30.39282
G1 X91.393 Y135.517 E30.40302
G1 X98.305 Y142.428 E30.55011
G1 X98.305 Y141.75 E30.56032
G1 X91.393 Y134.838 E30.70741
G1 X91.393 Y134.159 E30.71763
G1 X98.305 Y141.071 E30.86473
G1 X98.305 Y140.392 E30.87495
G1 X91.393 Y133.48 E31.02205
G1 X91.393 Y132.801 E31.03227
G1 X98.305 Y139.713 E31.17937
G1 X98.305 Y139.034 E31.18958
G1 X91.393 Y132.122 E31.33668
G1 X91.393 Y131.444 E31.34689
G1 X98.305 Y138.356 E31.49399
G1 X98.305 Y137.677 E31.5042
G1 X91.393 Y130.765 E31.6513
G1 X91.393 Y130.086 E31.66152
G1 X98.305 Y136.998 E31.80862
G1 X98.305 Y136.319 E31.81884
G1 X91.393 Y129.407 E31.96594
G1 X91.393 Y128.728 E31.97615
G1 X98.305 Y135.64 E32.12325
G1 X98.305 Y134.961 E32.13347
G1 X91.836 Y128.493 E32.27113
G1 X92.515 Y128.493 E32.28135
G1 X98.305 Y134.283 E32.40457
G1 X98.305 Y133.604 E32.41479
G1 X93.194 Y128.493 E32.52356
G1 X93.873 Y128.493 E32.53378
G1 X98.305 Y132.925 E32.6281
G1 X98.305 Y132.246 E32.63832
G1 X94.552 Y128.493 E32.71819
G1 X95.231 Y128.493 E32.7284
G1 X98.305 Y131.567 E32.79382
G1 X98.305 Y130.889 E32.80403
G1 X95.909 Y128.493 E32.85502
G1 X96.588 Y128.493 E32.86524
G1 X98.305 Y130.21 E32.90178
G1 X98.305 Y129.531 E32.91199
G1 X97.267 Y128.493 E32.93409
G1 X97.946 Y128.493 E32.9443
G1 X98.142 Y128.492 E32.94725
G1 X98.305 Y128.626 E32.95043
M204 S878
G0 F3600 X98.305 Y128.852
M204 S1170
G1 F900 X97.946 Y128.493 E32.95807
M204 S878
G0 F3600 X99.943 Y157.652
G0 X109.757 Y157.625
G0 X110.049 Y157.488
G0 X110.269 Y157.231
G0 X118.61 Y128.491
M204 S1170
G1 F900 X118.308 Y128.491 E32.96261
G1 X118.61 Y128.792 E32.96903
M204 S878
G0 F3600 X118.308 Y128.491
M204 S1170
G1 F900 X117.63 Y128.491 E32.97923
G1 X118.61 Y129.471 E33.00009
G1 X118.61 Y130.15 E33.01031
G1 X116.951 Y128.491 E33.04561
G1 X116.272 Y128.491 E33.05583
G1 X118.61 Y130.828 E33.10558
G1 X118.61 Y131.507 E33.11579
G1 X115.593 Y128.491 E33.17999
G1 X114.914 Y128.491 E33.19021
G1 X118.61 Y132.186 E33.26886
G1 X118.61 Y132.865 E33.27907
G1 X114.235 Y128.491 E33.37217
G1 X113.557 Y128.491 E33.38237
G1 X118.61 Y133.544 E33.48991
G1 X118.609 Y134.222 E33.50011
G1 X112.878 Y128.491 E33.62208
G1 X112.199 Y128.491 E33.6323
G1 X118.609 Y134.901 E33.76871
G1 X118.609 Y135.579 E33.77891
G1 X112.022 Y128.993 E33.91909
G1 X112.022 Y129.672 E33.9293
G1 X118.609 Y136.258 E34.06948
G1 X118.609 Y136.937 E34.07969
G1 X112.022 Y130.35 E34.21988
G1 X112.022 Y131.029 E34.23009
G1 X118.609 Y137.616 E34.37028
G1 X118.609 Y138.295 E34.3805
G1 X112.022 Y131.708 E34.52068
